X: 16823
T: Hartigan's Leaving
R: reel
M: 4/4
K: Dminor
|:C|D2AD FDAD|EFED CDCG,|A,DDC DEFG|Addc AGFE|
D2AD FDAD|EFED C3G,|A,DDE FGAG|FDEC A,DD:|
|:G|Adde fdec|Adfd gdfd|Adde fdec|ABAG FEFG|
Adde fdec|Adfd gdfd|Addc ABAG|FAGE FDD:|

